X:38
T:Soldier’s Cloak,The. JJo.038
S:J.Jones MS,1801,N.Shrops.
A:N Shropshire
Z:Neil Brookes 2006
M:6/8
L:1/8
Q:3/8=100
K:F
c2c cAc|f3a3|gecc2B|B3A2B|!
c2c cAc|f3a3|gecd2e|f3f2||!
g|a2a fga|b3a2g|f2f fcA|B3A2B|!
c2c cAc|f3a3|gecd2e|f3f3|]

